Newaita-dark/actions/scalable/process-stop.svg

<?xml version="1.0" encoding="UTF-8"?>
<svg xmlns="http://www.w3.org/2000/svg" xmlns:xlink="http://www.w3.org/1999/xlink" width="512pt" height="512pt" viewBox="0 0 512 512" version="1.1">
<defs>
<filter id="alpha" filterUnits="objectBoundingBox" x="0%" y="0%" width="100%" height="100%">
  <feColorMatrix type="matrix" in="SourceGraphic" values="0 0 0 0 1 0 0 0 0 1 0 0 0 0 1 0 0 0 1 0"/>
</filter>
<mask id="mask0">
  <g filter="url(#alpha)">
<rect x="0" y="0" width="512" height="512" style="fill:rgb(0%,0%,0%);fill-opacity:0.988235;stroke:none;"/>
  </g>
</mask>
<clipPath id="clip1">
  <rect x="0" y="0" width="512" height="512"/>
</clipPath>
<g id="surface5" clip-path="url(#clip1)">
<path style=" stroke:none;fill-rule:nonzero;fill:rgb(93.725491%,32.549021%,31.37255%);fill-opacity:1;" d="M 127.011719 258.023438 C 127.011719 249.257812 134.121094 242.148438 142.886719 242.148438 L 365.160156 242.148438 C 373.929688 242.148438 381.035156 249.257812 381.035156 258.023438 C 381.035156 266.792969 373.929688 273.902344 365.160156 273.902344 L 142.886719 273.902344 C 134.121094 273.902344 127.011719 266.792969 127.011719 258.023438 Z M 127.011719 258.023438 "/>
</g>
</defs>
<g id="surface1">
<path style=" stroke:none;fill-rule:nonzero;fill:rgb(93.725491%,32.549021%,31.37255%);fill-opacity:1;" d="M 254.023438 25.167969 C 125.023438 25.167969 21.167969 129.023438 21.167969 258.023438 C 21.167969 387.027344 125.023438 490.878906 254.023438 490.878906 C 383.027344 490.878906 486.878906 387.027344 486.878906 258.023438 C 486.878906 129.023438 383.027344 25.167969 254.023438 25.167969 Z M 254.023438 56.921875 C 365.433594 56.921875 455.125 146.613281 455.125 258.023438 C 455.125 369.433594 365.433594 459.125 254.023438 459.125 C 142.613281 459.125 52.921875 369.433594 52.921875 258.023438 C 52.921875 146.613281 142.613281 56.921875 254.023438 56.921875 Z M 254.023438 56.921875 "/>
<use xlink:href="#surface5" mask="url(#mask0)"/>
</g>
</svg>

<svg xmlns="http://www.w3.org/2000/svg" xmlns:xlink="http://www.w3.org/1999/xlink" width="512pt" height="512pt" viewBox="0 0 512 512"><defs><filter id="a" filterUnits="objectBoundingBox" x="0%" y="0%" width="100%" height="100%"><feColorMatrix in="SourceGraphic" values="0 0 0 0 1 0 0 0 0 1 0 0 0 0 1 0 0 0 1 0"/></filter><mask id="d"><path fill-opacity=".988" d="M0 0h512v512H0z" filter="url(#a)"/></mask><clipPath id="b"><path d="M0 0h512v512H0z"/></clipPath><g id="c" clip-path="url(#b)"><path d="M127.012 258.023c0-8.765 7.11-15.875 15.875-15.875H365.16c8.77 0 15.875 7.11 15.875 15.875 0 8.77-7.105 15.88-15.875 15.88H142.887c-8.766 0-15.875-7.11-15.875-15.88zm0 0" fill="#ef5350"/></g></defs><path d="M254.023 25.168c-129 0-232.855 103.855-232.855 232.855 0 129.004 103.855 232.856 232.855 232.856 129.004 0 232.856-103.852 232.856-232.856 0-129-103.852-232.855-232.856-232.855zm0 31.754c111.41 0 201.102 89.691 201.102 201.101s-89.691 201.102-201.102 201.102c-111.41 0-201.101-89.691-201.101-201.102 0-111.41 89.691-201.101 201.101-201.101zm0 0" fill="#ef5350"/><use xlink:href="#c" mask="url(#d)"/></svg>
